icons/linear-new-people-search.svg

<svg xmlns="http://www.w3.org/2000/svg" width="32px" height="32px" viewBox="0 0 32 32" version="1.1">
    <title>linear-new-people-search</title>
    <g id="linear-new-people-search" stroke-width="1" fill-rule="evenodd">
        <path d="M15.8656732,17.9988149 C15.5375825,18.6192213 15.2939684,19.2911896 15.1501485,19.9994022 L9,20 C7.34314575,20 6,21.3431458 6,23 L6,28 C6,28.5522847 5.55228475,29 5,29 C4.44771525,29 4,28.5522847 4,28 L4,23 C4,20.2385763 6.23857625,18 9,18 L15.8656732,17.9988149 Z M22.5,16 C25.5375661,16 28,18.4624339 28,21.5 C28,22.6572299 27.6426018,23.730985 27.0321626,24.616908 L29.7071068,27.2928932 C30.0976311,27.6834175 30.0976311,28.3165825 29.7071068,28.7071068 C29.3165825,29.0976311 28.6834175,29.0976311 28.2928932,28.7071068 L25.616908,26.0321626 C24.730985,26.6426018 23.6572299,27 22.5,27 C19.4624339,27 17,24.5375661 17,21.5 C17,18.4624339 19.4624339,16 22.5,16 Z M22.5,18 C20.5670034,18 19,19.5670034 19,21.5 C19,23.4329966 20.5670034,25 22.5,25 C24.4329966,25 26,23.4329966 26,21.5 C26,19.5670034 24.4329966,18 22.5,18 Z M16,2 C19.8659932,2 23,5.13400675 23,9 C23,12.8659932 19.8659932,16 16,16 C12.1340068,16 9,12.8659932 9,9 C9,5.13400675 12.1340068,2 16,2 Z M16,4 C13.2385763,4 11,6.23857625 11,9 C11,11.7614237 13.2385763,14 16,14 C18.7614237,14 21,11.7614237 21,9 C21,6.23857625 18.7614237,4 16,4 Z" id="&#24418;&#29366;" fill-rule="nonzero" />
    </g>
</svg>

<svg xmlns="http://www.w3.org/2000/svg" viewBox="0 0 32 32"><path fill="currentColor" d="M15.866 17.999a7.448 7.448 0 0 0-.716 2L9 20a3 3 0 0 0-3 3v5a1 1 0 0 1-2 0v-5a5 5 0 0 1 5-5zM22.5 16a5.5 5.5 0 0 1 4.532 8.617l2.675 2.676a1 1 0 0 1-1.414 1.414l-2.676-2.675A5.5 5.5 0 1 1 22.5 16m0 2a3.5 3.5 0 1 0 0 7 3.5 3.5 0 0 0 0-7M16 2a7 7 0 1 1 0 14 7 7 0 0 1 0-14m0 2a5 5 0 1 0 0 10 5 5 0 0 0 0-10"/></svg>
